X: 1
T: SUNDAY IS MY WEDDING-DAY -- JIG
B: Ryan's Mammoth Collection of Fiddle Tunes
R: jig
M: 6/8
L: 1/8
Z: Contributed 20000421023557 by John Chambers jcsd:world.std.com
K: Em
uc \
| BEE dEE | BEE FEF | D>DD FEF | ABc ded |
| BEE dEE | def gfe | afd AFD | (FE)E E2 :|
|: uf \
| efe fdB | efe fdB | ded dAF | DFA def |
| efe fdB | efe fdB | AGF dAF | (FE)E E2 :|
